icons/svg/endpoint-blocked_12.svg

<?xml version="1.0" encoding="UTF-8"?>
<svg width="12px" height="12px" viewBox="0 0 12 12" version="1.1" xmlns="http://www.w3.org/2000/svg" xmlns:xlink="http://www.w3.org/1999/xlink">
    <!-- Generator: Sketch 57.1 (83088) - https://sketch.com -->
    <title>endpoint-blocked_12</title>
    <desc>Created with Sketch.</desc>
    <g id="New-Icon" stroke="none" stroke-width="1" fill="none" fill-rule="evenodd">
        <g id="endpoint-blocked_12" fill="#171B1F">
            <g id="fill">
                <path d="M8.6998,2 C9.32793333,2 9.85240444,2.44600889 9.97320267,3.038016 L9.9928,3.167 L9.9998,3.3 L9.9998,5.351 L10.1739717,5.44027087 C11.258145,6.0348925 12,7.17855 12,8.5 C12,10.43 10.43,12 8.5,12 C7.17855,12 6.0348925,11.258145 5.44027088,10.1739717 L5.351,10 L1.2998,10 C0.671666667,10 0.147195556,9.55399111 0.0263973333,8.961984 L0.0068,8.833 L-0.0002,8.7 L-0.0002,3.3 C-0.0002,2.67186667 0.445808889,2.14739556 1.037816,2.02659733 L1.1668,2.007 L1.2998,2 L8.6998,2 Z M10.949,9 L6.051,9 C6.283,10.14 7.293,11 8.5,11 C9.707,11 10.717,10.14 10.949,9 Z M5.051,8 L0.9998,8 L0.9998,8.7 C0.9998,8.8175 1.06855,8.92041667 1.16843426,8.96939815 L1.2318,8.992 L1.2998,9 L5.051,9 C5.027,8.835 5,8.671 5,8.5 L5.00788889,8.33103704 L5.00788889,8.33103704 L5.02711111,8.16496296 L5.051,8 Z M8.5,6 C7.35047619,6 6.37963719,6.78004535 6.08937264,7.83911025 L6.051,8 L10.949,8 C10.717,6.86 9.707,6 8.5,6 Z M8.6998,3 L1.2998,3 C1.1823,3 1.07938333,3.06875 1.03040185,3.16805556 L1.0078,3.231 L0.9998,3.3 L0.9998,7 L5.351,7 C5.915,5.822 7.109,5 8.5,5 C8.671,5 8.835,5.027 9,5.051 L8.9998,3.3 C8.9998,3.15857143 8.90061633,3.03918367 8.76837143,3.00795918 L8.6998,3 Z M5.5,0 C5.776,0 6,0.224 6,0.5 C6,0.776 5.776,1 5.5,1 L5.5,1 L4.5,1 C4.224,1 4,0.776 4,0.5 C4,0.224 4.224,0 4.5,0 L4.5,0 Z"></path>
            </g>
        </g>
    </g>
</svg>

<svg width="12" height="12" xmlns="http://www.w3.org/2000/svg"><path d="M8.7 2a1.3 1.3 0 011.273 1.038l.02.129L10 3.3v2.051l.174.09A3.49 3.49 0 0112 8.5c0 1.93-1.57 3.5-3.5 3.5a3.49 3.49 0 01-3.06-1.826L5.351 10H1.3A1.3 1.3 0 01.026 8.962l-.02-.129L0 8.7V3.3a1.3 1.3 0 011.038-1.273l.129-.02L1.3 2h7.4zm2.249 7H6.051c.232 1.14 1.242 2 2.449 2 1.207 0 2.217-.86 2.449-2zM5.051 8H1v.7a.3.3 0 00.168.27l.064.022L1.3 9H5.05C5.027 8.835 5 8.671 5 8.5l.008-.169.02-.166L5.05 8zM8.5 6c-1.15 0-2.12.78-2.41 1.84L6.05 8h4.898A2.503 2.503 0 008.5 6zm.2-3H1.3a.301.301 0 00-.27.168l-.022.063L1 3.3V7H5.35A3.495 3.495 0 018.5 5c.171 0 .335.027.5.051V3.3c0-.141-.1-.26-.232-.292L8.7 3zM5.5 0a.5.5 0 010 1h-1a.5.5 0 010-1z" fill="#171B1F" fill-rule="evenodd"/></svg>
